X:315
T:Tom 
C:Aly Bain
S:irtrad-l, C.Walshaw, 2/95
M:C|
K:G
A|B3c dcBA|GABG D4|cBcd edcB|AGFE D3A|\
B3c dcBA|GABG D3G|EGEG FDFA|G2GF G3:|
z|d2Bd gagf|eccB c2AB|c2Ac abag|fdd^c d2B=c|\
d2Bd gagf|eccB c4|d2Bd cAFG|AGGF G3||
